X:1
T:James Gibb editions
T:Psalm 89.2 (Becker) - Schütz
%%score [ ( 1 2 ) ( 3 4 ) ]
L:1/8
Q:1/4=98
M:2/2
K:C
V:1 treble nm="Soprano Alto"
V:2 treble 
V:3 bass nm="Tenor Bass"
V:4 bass 
V:1
"^Cornelius Becker\n(1561-1604)""^Psalm 89 part 2, SWV 187""^Heinrich Schütz\n(1585-1672)" D4 A2 ^G2 | %1
w: ~Ach, Gott, wa-|
w: ach, Herr Gott,|
 A2 B2 c2 d2 | B2 c2 d2 e2 | c2 B2 (A2 B2) | A4 :|[M:2/2] F4 c2 _B2 | A2 G2 F2 D2 | G4 A4 | %8
w: rum ver- stößt du|nun und ver- wirfst|die Ge- mei\- *|ne,|daß du den|Bund deins Knechts zer-|störst und|
w: wie sehr zür- nest|du mit dem Ge-|salb- ten dei\- *|ne,||||
 G2 G2 c2 _B2 | A2 G2 A4 | c4 A2 d2 | c3 F (E D2 ^C) | D8 |] %13
w: all sein Herr- lich-|keit ver- heerst,|trittst sei- ne|Krön zu Bo\- * *|den.|
w: |||||
V:2
 D4 F2 E2 | E2 E2 E2 D2 | E2 E2 G2 G2 | F2 D2 (DC E2) | E4 :|[M:2/2] D4 E2 D2 | F2 E2 D2 F2 | %7
 E4 F4 | E2 D2 E2 G2 | C2 D2 E4 | F4 F2 F2 | F2 C2 (_B,2 A,2) | A,8 |] %13
V:3
 A,4 D2 B,2 | C2 B,2 A,2 A,2 | ^G,2 A,2 B,2 C2 | A,2 G,2 (F,/G,/ A,2 ^G,) | A,4 :| %5
[M:2/2] A,4 A,2 F,2 | C2 C2 A,2 A,2 | C4 C4 | C2 D2 C2 D2 | %9
"^22. Die Widersacher sind erhöht, den Feinden machst du Freude,\ndie Kraft auch unserm Schwert entgeht, kein Glück ist mehr im Streite,\nder Feind zerstöret Kirch und Schul, du stößt zu Boden Davids Stuhl,\nes geht alles zu Grunde.\n\n24. G'denk, wie kurz unser Tage sind, der Tod nimmt sie bald abe,\nwarum willst du all Menschenkind umsonst geschaffen haben?\nWer lebt doch, der nicht seh den Tod, wer kann sein Seel aus Höllen Not \ndurch eigne Hand erretten?\n\n26. Die Schmach der Feinde will ja dich, Gott, selbst auch mit angehen,\ndieweil sie so gar trotziglich deinen Gesalbten schmähen,\nschaff, daß wiedrum gesaget wird: Gelobet sei Gott, unser Herr,\newiglich, Amen, Amen." F2 ED ^C4 | %10
 A,4 C2 _B,2 | A,2 A,2 (G,>F, E,2) | D,8 |] %13
V:4
 D,4 D,2 E,2 | A,2 ^G,2 A,2 F,2 | E,2 A,2 =G,2 C,2 | F,2 G,2 (D,F, E,2) | A,,4 :| %5
[M:2/2] D,4 A,,2 _B,,2 | F,,2 C,2 D,2 D,2 | C,4 F,4 | C2 _B,2 A,2 G,2 | F,2 _B,2 A,4 | %10
 F,4 F,2 _B,,2 | F,2 F,,2 (G,,2 A,,2) | D,8 |] %13

